src/icons/not-secure.svg

<svg viewBox="0 0 48 48" fill="none" xmlns="http://www.w3.org/2000/svg">
<g>
<path fill="currentColor" d="M37.1444 8.53067L5.53296 40.1421L8.86048 43.4696L40.4719 11.8582L37.1444 8.53067Z"/>
<path fill="currentColor" opacity="0.44" d="M19.7918 20.4706H16.9447V15.7648C16.9447 14.2589 17.4271 12.793 18.3188 11.5813C19.2106 10.3695 20.4671 9.47304 21.9047 9.02598C23.3423 8.57892 24.8835 8.60245 26.307 9.09186C27.4364 9.48245 28.4317 10.1577 29.227 11.0354L32.4247 7.83775L32.54 7.66598C31.4435 6.50363 30.1211 5.57658 28.6529 4.94599C27.1847 4.31541 25.6012 3.99305 24.0035 4.00011C20.8835 4.00482 17.8953 5.24482 15.6883 7.44951C13.4836 9.65656 12.2436 12.6448 12.2389 15.7648V20.4706H9.88592C8.63886 20.4706 7.44122 20.9671 6.55887 21.8495C5.67652 22.7318 5.18005 23.9295 5.18005 25.1765V35.0824L19.7918 20.4706Z"/>
<path fill="currentColor" opacity="0.44" d="M38.1211 20.4707H37.5917L14.0624 44H38.1211C39.3682 44 40.5658 43.5036 41.4482 42.6212C42.3305 41.7389 42.827 40.5436 42.827 39.2942V25.1766C42.827 23.9295 42.3305 22.7319 41.4482 21.8495C40.5658 20.9672 39.3682 20.4707 38.1211 20.4707Z"/>
</g>
</svg>

<svg viewBox="0 0 48 48" fill="none" xmlns="http://www.w3.org/2000/svg"><g fill="currentColor"><path d="M37.144 8.53 5.533 40.143 8.86 43.47l31.612-31.612-3.328-3.327z"/><path opacity=".44" d="M19.792 20.47h-2.847v-4.705a7.06 7.06 0 0 1 9.362-6.673 7.055 7.055 0 0 1 2.92 1.943l3.198-3.197.115-.172A11.655 11.655 0 0 0 24.003 4a11.788 11.788 0 0 0-8.315 3.45 11.788 11.788 0 0 0-3.45 8.315v4.706H9.887a4.707 4.707 0 0 0-4.706 4.706v9.905l14.612-14.611zM38.121 20.47h-.53L14.063 44h24.06a4.707 4.707 0 0 0 4.705-4.706V25.177a4.708 4.708 0 0 0-4.706-4.706z"/></g></svg>
